img/logo-img.svg

<svg width="40" height="37" viewBox="0 0 40 37" fill="none" xmlns="http://www.w3.org/2000/svg">
<path fill-rule="evenodd" clip-rule="evenodd" d="M3.13307 34.4587C1.40988 34.4587 1.6082e-07 33.0488 1.49105e-07 31.3256L7.46349e-08 20.372L7.88626 20.372L7.88626 20.3598L12.6263 20.3598C13.8482 20.3285 14.8821 19.2633 14.8821 18.01C14.8821 16.7255 13.8168 15.6602 12.5323 15.6602L6.26614 15.6602L6.26614 15.6622L4.26148e-08 15.6622L2.13006e-08 12.5272C9.58529e-09 10.804 1.40988 9.3941 3.13307 9.3941L12.5323 9.3941C14.9134 9.3941 16.9499 10.24 18.6104 11.9319C20.3023 13.5924 21.1482 15.6289 21.1482 18.01C21.1482 20.3598 20.3336 22.3963 18.6731 24.0569C17.0126 25.7174 15.0074 26.5947 12.6576 26.626L6.26614 26.626L6.26614 31.3256C6.26614 33.0488 4.85626 34.4587 3.13307 34.4587Z" fill="#02BC6B"/>
<path fill-rule="evenodd" clip-rule="evenodd" d="M25.0971 5.7578C28.5586 9.11993 30.3028 13.3073 30.3028 18.0672C30.3028 22.7473 28.6315 26.9307 25.2235 30.3034L20.3849 25.7508C22.5043 23.6533 23.5447 21.128 23.5447 18.0672C23.5447 14.9832 22.473 12.4619 20.3027 10.3538L25.0971 5.7578Z" fill="#02897A"/>
<path fill-rule="evenodd" clip-rule="evenodd" d="M32.5057 -3.14562e-08C37.4914 4.97781 40.0002 11.1499 40.0002 18.2338C40.0002 25.2071 37.5925 31.3753 32.6887 36.3638L28.0189 31.8009C31.6717 28.085 33.4616 23.5781 33.4616 18.2338C33.4616 12.8358 31.6114 8.33276 27.8789 4.60616L32.5057 -3.14562e-08Z" fill="#035B81"/>
<path fill-rule="evenodd" clip-rule="evenodd" d="M0 26.6524L6.26614 26.6524L6.26614 31.326C6.26614 33.0492 4.85626 34.4591 3.13307 34.4591C1.40988 34.4591 4.34898e-08 33.0492 3.17744e-08 31.326L0 26.6524Z" fill="#028E37"/>
</svg>

<svg xmlns="http://www.w3.org/2000/svg" width="40" height="37" fill="none"><path fill="#02BC6B" fill-rule="evenodd" d="M3.133 34.459A3.142 3.142 0 0 1 0 31.326V20.372h7.886v-.012h4.74c1.222-.032 2.256-1.097 2.256-2.35a2.367 2.367 0 0 0-2.35-2.35H6.266v.002H0v-3.135a3.142 3.142 0 0 1 3.133-3.133h9.4c2.38 0 4.417.846 6.077 2.538 1.692 1.66 2.538 3.697 2.538 6.078 0 2.35-.814 4.386-2.475 6.047-1.66 1.66-3.666 2.538-6.015 2.569H6.266v4.7a3.142 3.142 0 0 1-3.133 3.133Z" clip-rule="evenodd"/><path fill="#02897A" fill-rule="evenodd" d="M25.097 5.758c3.462 3.362 5.206 7.55 5.206 12.31 0 4.68-1.672 8.863-5.08 12.235l-4.838-4.552c2.12-2.098 3.16-4.623 3.16-7.684 0-3.084-1.072-5.605-3.242-7.713l4.794-4.596Z" clip-rule="evenodd"/><path fill="#035B81" fill-rule="evenodd" d="M32.506 0C37.49 4.978 40 11.15 40 18.234c0 6.973-2.407 13.141-7.311 18.13l-4.67-4.563c3.653-3.716 5.443-8.223 5.443-13.567 0-5.398-1.85-9.901-5.583-13.628L32.506 0Z" clip-rule="evenodd"/><path fill="#028E37" fill-rule="evenodd" d="M0 26.652h6.266v4.674a3.142 3.142 0 0 1-3.133 3.133A3.142 3.142 0 0 1 0 31.326v-4.674Z" clip-rule="evenodd"/></svg>
